public/svgs/thin/angel.svg

<svg xmlns="http://www.w3.org/2000/svg" viewBox="0 0 576 512"><!-- Font Awesome Pro 6.0.0-alpha2 by @fontawesome - https://fontawesome.com License - https://fontawesome.com/license (Commercial License) --><path d="M181.093 90.297C184.5 87.484 184.984 82.437 182.156 79.047C178.078 74.094 176 69.031 176 64C176 41.297 221.999 16 288 16C353.999 16 400 41.297 400 64C400 69.031 397.921 74.094 393.843 79.047C391.015 82.437 391.5 87.484 394.906 90.297C396.39 91.531 398.203 92.141 400 92.141C402.296 92.141 404.578 91.156 406.156 89.234C412.687 81.359 416 72.859 416 64C416 28.109 359.781 0 288 0S160 28.109 160 64C160 72.859 163.312 81.359 169.843 89.234C172.625 92.641 177.703 93.078 181.093 90.297ZM571.742 453.125L533.617 374.5C526.992 361 526.992 344.875 533.617 331.375C538.367 321.625 542.242 314.75 545.492 309.25C554.992 292.75 559.992 282.75 559.992 256C559.992 204.875 513.117 160 459.619 160C434.746 160 410.621 170.25 393.246 188.125L320.629 261.494C307.957 257.273 296.285 256 287.99 256C279.705 256 268.127 257.26 255.548 261.422L183.004 188.25C165.504 170.25 141.254 160 116.505 160C63.007 160 16.007 204.875 16.007 256C16.007 282.75 21.007 292.75 30.507 309.25C33.757 314.75 37.632 321.5 42.382 331.25C49.007 344.75 49.007 360.875 42.382 374.375L4.257 453.125C-2.116 466 -1.241 480.875 6.257 493C13.757 504.875 26.507 512 40.507 512H535.617C549.492 512 562.242 504.875 569.742 493C577.24 480.875 578.115 465.875 571.742 453.125ZM40.507 496C32.097 496 24.351 491.684 19.865 484.582C15.228 477.088 14.755 467.982 18.658 460.096L56.746 381.424C65.539 363.508 65.539 342.117 56.765 324.242C51.771 313.99 47.699 306.893 44.373 301.266C35.578 285.988 32.007 278.877 32.007 256C32.007 213.383 71.492 176 116.505 176C137.015 176 157.072 184.529 171.64 199.514L239.738 268.203C220.974 278.117 205.224 293.535 195.371 313.242L103.996 496H40.507ZM121.884 496L209.681 320.398C229.72 280.324 270.027 272 287.99 272C305.902 272 346.261 280.324 366.298 320.398L454.095 496H121.884ZM556.214 484.455C551.648 491.684 543.949 496 535.617 496H471.984L380.609 313.242C370.785 293.594 355.097 278.209 336.41 268.291L404.718 199.277C419.097 184.484 439.109 176 459.619 176C504.566 176 543.992 213.383 543.992 256C543.992 278.877 540.421 285.988 531.716 301.109C528.3 306.891 524.226 314.117 519.254 324.326C510.461 342.24 510.461 363.633 519.22 381.48L557.431 460.279C561.275 467.969 560.791 477.055 556.214 484.455ZM208.002 144C208.002 188.25 243.752 224 288 224S367.998 188.25 367.998 144S332.248 64 288 64S208.002 99.75 208.002 144ZM351.998 144C351.998 179.289 323.287 208 288 208S224.002 179.289 224.002 144C224.002 108.709 252.713 80 288 80S351.998 108.709 351.998 144Z"/></svg>

<svg xmlns="http://www.w3.org/2000/svg" viewBox="0 0 576 512"><!--! Font Awesome Pro 6.5.1 by @fontawesome - https://fontawesome.com License - https://fontawesome.com/license (Commercial License) Copyright 2023 Fonticons, Inc. --><path d="M181.1 90.3c3.4-2.8 3.9-7.9 1.1-11.3c-4.1-5-6.2-10-6.2-15c0-22.7 46-48 112-48s112 25.3 112 48c0 5-2.1 10.1-6.2 15c-2.8 3.4-2.3 8.4 1.1 11.3c1.5 1.2 3.3 1.8 5.1 1.8c2.3 0 4.6-1 6.2-2.9c6.5-7.9 9.8-16.4 9.8-25.2c0-35.9-56.2-64-128-64S160 28.1 160 64c0 8.9 3.3 17.4 9.8 25.2c2.8 3.4 7.9 3.8 11.2 1.1zM571.7 453.1l-38.2-78.6c-6.6-13.5-6.6-29.6 0-43.1c4.7-9.8 8.7-16.6 11.9-22.1C555 292.8 560 282.8 560 256c0-51.1-46.9-96-100.4-96c-24.9 0-49 10.2-66.3 28.1l-72.7 73.4c-12.7-4.2-24.3-5.5-32.6-5.5s-19.9 1.3-32.4 5.4L183 188.2c-17.5-18-41.7-28.2-66.4-28.2C63 160.1 16 204.9 16 256c0 26.8 5 36.8 14.5 53.2c3.2 5.5 7.1 12.3 11.9 22c6.6 13.5 6.6 29.6 0 43.1L4.3 453.1c-6.4 12.9-5.5 27.7 2 39.9c7.5 11.9 20.3 19 34.3 19h495c13.9 0 26.7-7.1 34.2-19c7.5-12.1 8.4-27.1 2-39.9zM40.5 496c-8.4 0-16.2-4.3-20.6-11.4c-4.6-7.5-5.1-16.6-1.2-24.5l38.1-78.7c8.8-17.9 8.8-39.3 0-57.2c-5-10.3-9.1-17.4-12.4-23C35.6 286 32 278.9 32 256c0-42.6 39.5-80 84.5-80c20.5 0 40.6 8.5 55.1 23.5l68.1 68.7c-18.8 9.9-34.5 25.3-44.3 45L104 496H40.5zm81.4 0l87.8-175.6C229.7 280.3 270 272 288 272c17.9 0 58.3 8.3 78.3 48.4L454.1 496H121.9zm434.3-11.5c-4.6 7.2-12.3 11.5-20.6 11.5H472L380.6 313.2c-9.8-19.6-25.5-35-44.2-45l68.3-69c14.4-14.8 34.4-23.3 54.9-23.3c44.9 0 84.4 37.4 84.4 80c0 22.9-3.6 30-12.3 45.1c-3.4 5.8-7.5 13-12.5 23.2c-8.8 17.9-8.8 39.3 0 57.2l38.2 78.8c3.8 7.7 3.4 16.8-1.2 24.2zM208 144a80 80 0 1 0 160 0 80 80 0 1 0 -160 0zm16 0a64 64 0 1 1 128 0 64 64 0 1 1 -128 0z"/></svg>
